X:1
T:Title
%%score { ( 1 3 5 ) | ( 2 4 6 ) }
L:1/8
Q:1/4=87
M:6/8
K:Db
V:1 treble nm="Grand Piano"
V:3 treble 
V:5 treble 
V:2 bass 
V:4 bass 
V:6 bass 
V:1
 DEF [FA]2 F | z3 .B3 | [DFA]2 [A,DF] [=G,DF]2 [G,D] | [A,CE]6 | EEF GF[A,CE] | %5
w: Thoro~Harris * * * *|||||
 .[A,DF]2 [CGB] [DFA]2 [_FB] | z3 .B3 | A6 | .[Fd]3 [Gc]3 | .[Gc]3 [FB]3 | %10
w: |||||
 [=GB][DEG=A][DEGB] e-[_Ae][EBd] | d3 z3 | [Fd][Fc][Fd] [Ae]2 [Af] | .[Bf]3 .B3 | .d3 z3 | [Fd]6 |] %16
w: ||||||
V:2
 [D,F,][D,G,D][D,A,D] [D,_C]2 [D,CD] | [G,B,D]2 [G,D] .[G,D]2 G, | D,2 D, z EB,, | A,,6 | %4
 [A,C][G,A,C][F,A,D] [E,A,C]2 A,, | z B,D, D,2 [D,A,] | [E,A,E][E,B,E][E,C] [E,D]2 [E,DE] | %7
 [CE]CD E3 | .D,>[K:treble]F[F,A,DF][K:bass] E,G,G, | .A,,>GE, D,F,F, | E,=G,G, B,-[F,B,]G, | %11
 z3[K:treble] c3[K:bass] | [D,A,][D,A,][D,A,] [F,_C]2 [D,C] | .[G,B,]2 [G,D] .[G,EG]2 [G,=A,E] | %14
 [A,F]2 [=A,E=G] [_A,E_G]2[K:bass] A,, | [D,A,]6 |] %16
V:3
 x6 | G2 B z E[D_FB] | x6 | x6 | x6 | x6 | cBA =GFG | z EF G3 | z z/ c/B z [A,C][A,C] | %9
 z z/ B/[A,CGA] z [A,D][A,D] | z3 .=G3 | [EG]6 | x6 | z C[Be] z B,e | z Dd cB[EGc] | x6 |] %16
V:4
 x6 | x6 | z3 .B,,3 | x6 | x6 | .D,3 z3 | x6 | A,6 | z .F,2[K:treble][K:bass] z3 | z .E,2 z3 | %10
 z3 .E,3 | z2[K:treble] _A,- A,[K:bass] z z | x6 | x6 | x5[K:bass] x | x6 |] %16
V:5
 x6 | x6 | x6 | x6 | x6 | x6 | x6 | x6 | z .[A,D]2 z3 | z .[A,C]2 z3 | x6 | x6 | x6 | x6 | x6 | %15
 x6 |] %16
V:6
 x6 | x6 | x6 | x6 | x6 | x6 | x6 | x6 | x3/2[K:treble] x3/2[K:bass] x3 | x6 | x6 | %11
 A, .=A,2[K:treble] z[K:bass] G,E, | x6 | x6 | x5[K:bass] x | x6 |] %16

